X: 8672
T: Crossing The Delaware
R: reel
M: 4/4
K: Gmajor
|:A|BdAd BAGB|AEGE DEGA|BdAB GABd|gbag edBd|
e2ge d2gd|BedB A2Bd|egdg BAGA|BGAd G3:|
|:A|Bd (3ddd GABd|bagb aeed|BABd gedg|egdG BAAd|
BdAd BABd|gbag edBd|e2ge d2gd|BGAd G3:|

